public/icons/platform-img3.svg

<svg width="82" height="78" viewBox="0 0 82 78" fill="none" xmlns="http://www.w3.org/2000/svg">
<path d="M78.6297 34.7614C74.1352 30.2669 66.8221 30.2669 62.3284 34.7614L61.4741 35.6157L77.7754 51.9172L78.6297 51.0629C83.1242 46.5686 83.1242 39.2557 78.6297 34.7614Z" fill="#212121"/>
<path d="M61.8406 53.9369C61.1815 54.5957 60.1134 54.5957 59.4542 53.9369C58.795 53.2778 58.795 52.2092 59.4542 51.5505L65.7875 45.2172L58.83 38.2596L50.7992 46.2902C50.4735 46.6159 50.265 47.0411 50.2075 47.4984L48.2783 62.7921C48.1979 63.4287 48.4166 64.0666 48.8701 64.5206C49.3239 64.9743 49.962 65.1932 50.599 65.1126L65.8927 63.1834C66.35 63.1258 66.7752 62.9174 67.1009 62.5915L75.1317 54.5607L68.1741 47.6032L61.8406 53.9369ZM52.5885 61.5449C52.385 61.5702 52.1807 61.5004 52.0355 61.3552C51.8899 61.21 51.8198 61.0059 51.8456 60.8022L52.4628 55.9081L57.4818 60.9269L52.5885 61.5449Z" fill="#212121"/>
<path d="M64.9312 67.9292V71.0755H25.6764V6.9242H64.9312V29.2572C66.8163 28.3422 68.8794 27.8147 71.0232 27.7186V4.89352C71.0232 2.65043 69.2052 0.832153 66.9619 0.832153H10.915C8.67211 0.832153 6.85364 2.65043 6.85364 4.89352V14.8349H3.85879C1.73124 14.8349 0.000488281 16.5657 0.000488281 18.693C0.000488281 20.8204 1.73124 22.5511 3.85879 22.5511H6.85364V35.1418H3.85879C1.73124 35.1418 0.000488281 36.8725 0.000488281 38.9999C0.000488281 41.1274 1.73124 42.858 3.85879 42.858H6.85364V55.4486H3.85879C1.73124 55.4486 0.000488281 57.1789 0.000488281 59.3067C0.000488281 61.4342 1.73124 63.1648 3.85879 63.1648H6.85364V73.1062C6.85364 75.3493 8.67211 77.1676 10.915 77.1676H66.9619C69.2052 77.1676 71.0232 75.3493 71.0232 73.1062V66.027C70.0928 66.8742 68.9113 67.4274 67.6596 67.585L64.9312 67.9292ZM19.1393 71.0755H12.9457V63.1648H13.9103C16.0378 63.1648 17.7684 61.4342 17.7684 59.3067C17.7684 57.1789 16.0378 55.4486 13.9103 55.4486H12.9457V42.858H13.9103C16.0378 42.858 17.7684 41.1274 17.7684 38.9999C17.7684 36.8725 16.0378 35.1418 13.9103 35.1418H12.9457V22.5511H13.9103C16.0378 22.5511 17.7684 20.8204 17.7684 18.693C17.7684 16.5657 16.0378 14.8349 13.9103 14.8349H12.9457V6.9242H19.1393V71.0755Z" fill="#212121"/>
</svg>

<svg viewBox="0 0 82 78" fill="none" xmlns="http://www.w3.org/2000/svg"><path d="M78.63 34.761c-4.495-4.494-11.808-4.494-16.302 0l-.854.855 16.301 16.301.855-.854c4.494-4.494 4.494-11.807 0-16.302zM61.84 53.937a1.688 1.688 0 01-2.386-2.386l6.333-6.334-6.957-6.957-8.03 8.03c-.326.326-.535.751-.592 1.208l-1.93 15.294a2.078 2.078 0 002.321 2.32l15.294-1.929a2.075 2.075 0 001.208-.591l8.03-8.031-6.957-6.958-6.333 6.334zm-9.252 7.608a.666.666 0 01-.742-.743l.617-4.894 5.019 5.019-4.893.618z" fill="#212121"/><path d="M64.931 67.93v3.145H25.676V6.925h39.255v22.332a15.51 15.51 0 016.092-1.538V4.894A4.061 4.061 0 0066.962.832H10.915a4.061 4.061 0 00-4.061 4.062v9.94H3.859A3.863 3.863 0 000 18.694a3.862 3.862 0 003.859 3.858h2.995v12.59H3.859A3.862 3.862 0 000 39a3.862 3.862 0 003.859 3.858h2.995v12.59H3.859A3.862 3.862 0 000 59.308a3.862 3.862 0 003.859 3.858h2.995v9.941a4.061 4.061 0 004.061 4.062h56.047a4.061 4.061 0 004.061-4.062v-7.079a6.163 6.163 0 01-3.363 1.558l-2.729.344zM19.14 71.074h-6.193v-7.91h.964a3.862 3.862 0 003.858-3.858 3.862 3.862 0 00-3.858-3.858h-.964V42.858h.964A3.862 3.862 0 0017.768 39a3.862 3.862 0 00-3.858-3.858h-.964v-12.59h.964a3.862 3.862 0 003.858-3.859 3.862 3.862 0 00-3.858-3.858h-.964v-7.91h6.193v64.15z" fill="#212121"/></svg>
